X:1
T: Wa' is Me, What Mun I Do?
N:
C:
S:
A:
O:
R:
M:3/4
K:G
I:speed 150
%W: A1
% voice 1 (1 lines, 33 notes)
K:G
M:3/4
L:1/16
d6 g2 d2 B2 |d4 B4 G4 |e6 g2 e2 c2 |e4 c4 A4 |d2 g4 b2 a2 g2 |a4 d4 B4 |c3 d e2 d2 c2 B2 |A2 G2 g2 f2 g4 |
%W: A2
% voice 1 (1 lines, 33 notes)
d6 g2 d2 B2 |d4 B4 G4 |e6 g2 e2 c2 |e4 c4 A4 |d2 g4 b2 a2 g2 |a4 d4 B4 |c3 d e2 d2 c2 B2 |A2 G2 g2 f2 g4 |
%W: B1
% voice 1 (1 lines, 46 notes)
b2 g2 d2 b2 a2 g2 |a4 d4 B4 |g2 e2 B2 g2 e2 B2 |^c4 c d e2 A4 |a2 f2 d2 a2 f2 d2 |a2 ^c2 e2 c2 A2 a2 |e2 a2 f2 a2 e2 a2 |f2 e f g f e d d4 |
%W: B2
% voice 1 (1 lines, 41 notes)
g3 f g2 a2 g2 f2 |g6 a2 g4 |a3 g a2 b2 a2 g2 |a6 b2 a4 |b3 a b2 c'2 b2 a2 |b3 c' b2 a2 g4 |g3 a g a b2 a2 g2 |g2 a2 g2 d2 g4 ||
